svg/sport/baseball_2_line.svg

<svg xmlns="http://www.w3.org/2000/svg" width="24" height="24" viewBox="0 0 24 24"><g fill="none" fill-rule="evenodd"><path d="M24,0 L24,24 L0,24 L0,0 L24,0 Z M12.5935,23.2578 L12.5819,23.2595 L12.5109,23.295 L12.4919,23.2987 L12.4767,23.295 L12.4057,23.2595 C12.3958,23.2564 12.387,23.259 12.3821,23.2649 L12.378,23.2758 L12.3609,23.7031 L12.3659,23.7235 L12.3769,23.7357 L12.4805,23.8097 L12.4953,23.8136 L12.5071,23.8097 L12.6107,23.7357 L12.6233,23.7197 L12.6267,23.7031 L12.6096,23.2758 C12.6076,23.2657 12.601,23.2593 12.5935,23.2578 Z M12.8584,23.1453 L12.8445,23.1473 L12.6598,23.2397 L12.6499,23.2499 L12.6472,23.2611 L12.6651,23.6906 L12.6699,23.7034 L12.6784,23.7105 L12.8793,23.8032 C12.8914,23.8069 12.9022,23.803 12.9078,23.7952 L12.9118,23.7812 L12.8777,23.1665 C12.8753,23.1546 12.8674,23.147 12.8584,23.1453 Z M12.143,23.1473 C12.1332,23.1424 12.1222,23.1453 12.1156,23.1526 L12.1099,23.1665 L12.0758,23.7812 C12.0751,23.7927 12.0828,23.8019 12.0926,23.8046 L12.1083,23.8032 L12.3092,23.7105 L12.3186,23.7024 L12.3225,23.6906 L12.3404,23.2611 L12.3372,23.2485 L12.3278,23.2397 L12.143,23.1473 Z"/><path fill="#09244B" d="M10.8253,4.83528 L18.598,15.2882 L20.4649,16.6217 C21.2192,17.1604 21.3092,18.2475 20.6537,18.9029 L18.66,20.8967 C18.0046,21.5521 16.9175,21.4621 16.3788,20.7079 L15.0452,18.8409 L4.59236,11.0683 C2.41099,9.44622 2.17838,6.26562 4.10054,4.34346 C6.0227,2.4213 9.2033,2.65391 10.8253,4.83528 Z M15.9682,15.1033 L14.8604,16.2111 L16.3645,17.3296 C16.4201,17.3709333 16.4711667,17.4178667 16.5169296,17.4696296 L16.5815,17.5508 L17.6632,19.0651 L18.8222,17.9061 L17.3079,16.8245 C17.2515,16.7841667 17.1995444,16.7381889 17.1528037,16.6873074 L17.0867,16.6074 L15.9682,15.1033 Z M5.51475,5.75767 C4.45555,6.81687 4.58374,8.56952 5.78577,9.46334 L13.2382,15.0049 L14.762,13.4811 L9.22042,6.02869 C8.3266,4.82666 6.57395,4.69847 5.51475,5.75767 Z M15.7071,4.63609 C16.8786,3.46452 18.7781,3.46452 19.9497,4.63609 C21.1213,5.80766 21.1213,7.70716 19.9497,8.87873 C18.7781,10.0503 16.8786,10.0503 15.7071,8.87873 C14.5355,7.70716 14.5355,5.80766 15.7071,4.63609 Z M18.5355,6.0503 C18.145,5.65978 17.5118,5.65978 17.1213,6.0503 C16.7308,6.44083 16.7308,7.07399 17.1213,7.46452 C17.5118,7.85504 18.145,7.85504 18.5355,7.46452 C18.926,7.07399 18.926,6.44083 18.5355,6.0503 Z"/></g></svg>

<svg xmlns="http://www.w3.org/2000/svg" width="24" height="24"><g fill="none" fill-rule="evenodd"><path d="M24 0v24H0V0zM12.594 23.258l-.012.002-.071.035-.02.004-.014-.004-.071-.036c-.01-.003-.019 0-.024.006l-.004.01-.017.428.005.02.01.013.104.074.015.004.012-.004.104-.074.012-.016.004-.017-.017-.427c-.002-.01-.009-.017-.016-.018m.264-.113-.014.002-.184.093-.01.01-.003.011.018.43.005.012.008.008.201.092c.012.004.023 0 .029-.008l.004-.014-.034-.614c-.003-.012-.01-.02-.02-.022m-.715.002a.023.023 0 0 0-.027.006l-.006.014-.034.614c0 .012.007.02.017.024l.015-.002.201-.093.01-.008.003-.011.018-.43-.003-.012-.01-.01z"/><path fill="#09244B" d="m10.825 4.835 7.773 10.453 1.867 1.334a1.5 1.5 0 0 1 .189 2.28l-1.994 1.995a1.5 1.5 0 0 1-2.281-.19l-1.334-1.866-10.453-7.773a4.455 4.455 0 1 1 6.233-6.233m5.143 10.268-1.108 1.108 1.505 1.119a.999.999 0 0 1 .152.14l.064.08 1.082 1.515 1.16-1.159-1.515-1.081a1.002 1.002 0 0 1-.155-.138l-.066-.08zM5.515 5.758a2.455 2.455 0 0 0 .27 3.705l7.453 5.542 1.524-1.524L9.22 6.03a2.455 2.455 0 0 0-3.705-.271m10.192-1.122A3 3 0 1 1 19.95 8.88a3 3 0 0 1-4.243-4.243m2.828 1.414a1 1 0 1 0-1.414 1.415 1 1 0 0 0 1.415-1.415"/></g></svg>
